dist/svg/static/blog-post-large.svg

<svg xmlns="http://www.w3.org/2000/svg" width="48" height="48" viewBox="0 0 48 48"><path d="M7.5 41.5v-12a3.008 3.008 0 0 1 2.999-3H28.5a3.008 3.008 0 0 1 2.999 3v12h-24zm9.03-31h5.97a3 3 0 0 1 3 3v6a3 3 0 0 1-3 3h-5.97a3.03 3.03 0 0 1-3.03-3.03v-5.94a3.03 3.03 0 0 1 3.03-3.03zm14.69-.027s5.13 5.483 0 10.696m5.327-14.602s11.135 9.577 0 19.358" fill="none" stroke="currentColor"/></svg>

<?xml version="1.0" encoding="UTF-8" standalone="no"?>
<svg width="48px" height="48px" viewBox="0 0 48 48" version="1.1" xmlns="http://www.w3.org/2000/svg" xmlns:xlink="http://www.w3.org/1999/xlink">
    <!-- Generator: sketchtool 46.2 (44496) - http://www.bohemiancoding.com/sketch -->
    <title>blog-post-large</title>
    <desc>Created with sketchtool.</desc>
    <defs></defs>
    <g id="icons-published" stroke="none" stroke-width="1" fill="none" fill-rule="evenodd">
        <g id="briefing" transform="translate(-3168.000000, -154.000000)"></g>
        <g id="blog-post-large" stroke="#000000">
            <path d="M7.5,41.5 L7.5,29.5 C7.5,27.8 8.8,26.5 10.5,26.5 L28.5,26.5 C30.2,26.5 31.5,27.8 31.5,29.5 L31.5,41.5 L7.5,41.5 L7.5,41.5 Z M16.5,10.5 L22.5,10.5 C24.2,10.5 25.5,11.8 25.5,13.5 L25.5,19.5 C25.5,21.2 24.2,22.5 22.5,22.5 L16.5,22.5 C14.8,22.5 13.5,21.1 13.5,19.5 L13.5,19.5 L13.5,13.6 C13.5,11.9 14.9,10.5 16.5,10.5 Z" id="Shape"></path>
            <path d="M31.2,10.5 C31.2,10.5 36.3,16 31.2,21.2" id="Path"></path>
            <path d="M36.5,6.6 C36.5,6.6 47.6,16.2 36.5,26" id="Path"></path>
        </g>
    </g>
</svg>
